; generated by PrusaSlicer 2.1.0+ on 2019-10-30 at 18:42:21 UTC

; 

; external perimeters extrusion width = 0.45mm
; perimeters extrusion width = 0.45mm
; infill extrusion width = 0.45mm
; solid infill extrusion width = 0.45mm
; top infill extrusion width = 0.40mm
; first layer extrusion width = 0.42mm

M73 P0 R38
M73 Q0 S38
M201 X1000 Y1000 Z1000 E5000 ; sets maximum accelerations, mm/sec^2
M203 X200 Y200 Z12 E120 ; sets maximum feedrates, mm/sec
M204 P1250 R1250 T1250 ; sets acceleration (P, T) and retract acceleration (R), mm/sec^2
M205 X8.00 Y8.00 Z0.40 E1.50 ; sets the jerk limits, mm/sec
M205 S0 T0 ; sets the minimum extruding and travel feed rate, mm/sec
M107
M862.3 P "MK3S" ; printer model check
M862.1 P0.4 ; nozzle diameter check
M115 U3.8.0 ; tell printer latest fw version
G90 ; use absolute coordinates
M83 ; extruder relative mode
M104 S215 ; set extruder temp
M140 S60 ; set bed temp
M190 S60 ; wait for bed temp
M109 S215 ; wait for extruder temp
G28 W ; home all without mesh bed level
G80 ; mesh bed leveling
G1 Y-3.0 F1000.0 ; go outside print area
G92 E0.0
G1 X60.0 E9.0 F1000.0 ; intro line
M73 Q0 S38
M73 P0 R38
G1 X100.0 E12.5 F1000.0 ; intro line
G92 E0.0
M221 S95
G21 ; set units to millimeters
G90 ; use absolute coordinates
M83 ; use relative distances for extrusion
M900 K30 ; Filament gcode
;BEFORE_LAYER_CHANGE
G92 E0.0
;0.2


G1 E-0.80000 F2100.00000
G1 Z0.600 F10800.000
;AFTER_LAYER_CHANGE
;0.2
G1 X92.989 Y77.520
G1 Z0.200
G1 E0.80000 F2100.00000
M204 S1000
G1 F1200
G1 X95.907 Y74.448 E0.13285
G1 X99.150 Y71.659 E0.13411
G1 X101.632 Y69.877 E0.09579
G1 X105.155 Y67.771 E0.12871
G1 X109.054 Y65.941 E0.13505
G1 X113.052 Y64.539 E0.13283
G1 X117.206 Y63.538 E0.13400
G1 X121.441 Y62.962 E0.13400
G1 X125.679 Y62.817 E0.13297
G1 X129.976 Y63.106 E0.13503
G1 X134.153 Y63.817 E0.13285
G1 X137.112 Y64.590 E0.09590
G1 X141.014 Y65.969 E0.12976
G1 X144.848 Y67.772 E0.13283
G1 X148.512 Y69.971 E0.13400
G1 X151.936 Y72.529 E0.13400
G1 X155.082 Y75.421 E0.13400
G1 X157.921 Y78.616 E0.13400
G1 X160.421 Y82.082 E0.13400
G1 X162.558 Y85.783 E0.13400
G1 X164.296 Y89.647 E0.13285
G1 X165.265 Y92.406 E0.09167
G1 X166.332 Y96.544 E0.13400
G1 X166.972 Y100.735 E0.13294
G1 X167.188 Y105.037 E0.13505
G1 X166.972 Y109.268 E0.13283
G1 X166.325 Y113.492 E0.13400
G1 X165.254 Y117.629 E0.13400
G1 X163.770 Y121.637 E0.13400
G1 X161.888 Y125.474 E0.13400
G1 X159.627 Y129.101 E0.13400
G1 X157.011 Y132.480 E0.13400
G1 X154.093 Y135.552 E0.13285
G1 X150.850 Y138.341 E0.13411
G1 X148.368 Y140.123 E0.09578
G1 X144.845 Y142.229 E0.12871
G1 X140.946 Y144.059 E0.13505
G1 X136.948 Y145.461 E0.13283
G1 X132.794 Y146.462 E0.13400
G1 X128.559 Y147.038 E0.13400
G1 X124.288 Y147.183 E0.13400
G1 X120.024 Y146.894 E0.13400
G1 X115.847 Y146.183 E0.13285
G1 X111.727 Y145.046 E0.13399
G1 X108.986 Y144.031 E0.09167
G1 X105.152 Y142.228 E0.13283
G1 X101.488 Y140.029 E0.13400
G1 X98.064 Y137.471 E0.13400
G1 X94.918 Y134.579 E0.13400
G1 X92.079 Y131.384 E0.13400
G1 X89.579 Y127.918 E0.13400
G1 X87.442 Y124.217 E0.13400
G1 X85.704 Y120.353 E0.13285
G1 X84.348 Y116.281 E0.13457
G1 X83.562 Y112.892 E0.10908
G1 X83.027 Y109.254 E0.11529
G1 X82.812 Y104.963 E0.13471
G1 X83.028 Y100.732 E0.13283
G1 X83.675 Y96.508 E0.13400
G1 X84.746 Y92.371 E0.13400
G1 X86.230 Y88.363 E0.13400
G1 X88.112 Y84.526 E0.13400
G1 X90.373 Y80.899 E0.13400
G1 X92.952 Y77.567 E0.13212
G1 F8640
G1 X95.216 Y75.178 E-0.76000
G1 E-0.04000 F2100.00000
G1 Z0.800 F10800.000
G1 X95.087 Y79.338
G1 Z0.200
G1 E0.80000 F2100.00000
G1 F1200
G1 X95.979 Y78.332 E0.04217
G1 X96.897 Y77.367 E0.04174
G1 X97.845 Y76.434 E0.04171
G1 X98.928 Y75.446 E0.04598
G1 X99.836 Y74.666 E0.03753
G1 X100.874 Y73.834 E0.04171
G1 X102.052 Y72.960 E0.04598
G1 X103.034 Y72.276 E0.03753
G1 X104.151 Y71.553 E0.04171
G1 X105.411 Y70.802 E0.04598
G1 X106.458 Y70.221 E0.03753
G1 X107.643 Y69.615 E0.04174
G1 X108.848 Y69.049 E0.04174
G1 X110.071 Y68.524 E0.04174
G1 X111.312 Y68.041 E0.04174
G1 X112.568 Y67.599 E0.04174
G1 X113.838 Y67.201 E0.04174
G1 X115.121 Y66.845 E0.04174
G1 X116.415 Y66.533 E0.04174
G1 X117.719 Y66.265 E0.04174
G1 X119.032 Y66.042 E0.04174
G1 X120.351 Y65.862 E0.04174
G1 X121.675 Y65.728 E0.04174
G1 X123.004 Y65.638 E0.04174
G1 X124.333 Y65.593 E0.04171
G1 X125.800 Y65.597 E0.04598
G1 X126.996 Y65.638 E0.03753
G1 X128.325 Y65.728 E0.04174
G1 X129.649 Y65.862 E0.04174
G1 X130.968 Y66.042 E0.04174
G1 X132.281 Y66.265 E0.04174
G1 X133.585 Y66.533 E0.04174
G1 X134.879 Y66.845 E0.04174
G1 X136.162 Y67.201 E0.04174
G1 X137.432 Y67.599 E0.04174
G1 X138.688 Y68.041 E0.04174
G1 X139.929 Y68.524 E0.04174
G1 X141.152 Y69.049 E0.04174
G1 X142.357 Y69.615 E0.04174
G1 X143.542 Y70.221 E0.04174
G1 X144.706 Y70.867 E0.04174
G1 X145.848 Y71.553 E0.04174
G1 X146.966 Y72.276 E0.04174
G1 X148.058 Y73.036 E0.04174
G1 X149.125 Y73.833 E0.04174
G1 X150.164 Y74.666 E0.04174
G1 X151.174 Y75.533 E0.04174
G1 X152.154 Y76.434 E0.04174
G1 X153.103 Y77.367 E0.04174
G1 X154.021 Y78.332 E0.04174
G1 X154.905 Y79.328 E0.04174
G1 X155.755 Y80.352 E0.04174
G1 X156.570 Y81.405 E0.04174
G1 X157.349 Y82.485 E0.04174
G1 X158.091 Y83.590 E0.04174
G1 X158.795 Y84.720 E0.04174
G1 X159.460 Y85.873 E0.04174
G1 X160.087 Y87.048 E0.04174
G1 X160.673 Y88.243 E0.04174
G1 X161.219 Y89.457 E0.04174
G1 X161.723 Y90.689 E0.04174
G1 X162.185 Y91.938 E0.04174
G1 X162.605 Y93.201 E0.04174
G1 X162.982 Y94.477 E0.04171
G1 X163.345 Y95.898 E0.04598
G1 X163.606 Y97.066 E0.03753
G1 X163.852 Y98.374 E0.04171
G1 X164.069 Y99.824 E0.04598
G1 X164.211 Y101.013 E0.03753
G1 X164.323 Y102.339 E0.04174
G1 X164.390 Y103.669 E0.04174
G1 X164.413 Y105.000 E0.04174
G1 X164.390 Y106.331 E0.04174
G1 X164.323 Y107.661 E0.04174
G1 X164.211 Y108.987 E0.04174
G1 X164.054 Y110.309 E0.04174
G1 X163.852 Y111.625 E0.04174
G1 X163.606 Y112.934 E0.04174
G1 X163.316 Y114.233 E0.04174
G1 X162.982 Y115.522 E0.04174
G1 X162.606 Y116.798 E0.04171
G1 X162.139 Y118.188 E0.04598
G1 X161.723 Y119.311 E0.03753
G1 X161.219 Y120.543 E0.04174
G1 X160.673 Y121.757 E0.04174
G1 X160.087 Y122.952 E0.04174
G1 X159.460 Y124.127 E0.04174
G1 X158.795 Y125.280 E0.04174
G1 X158.091 Y126.410 E0.04174
G1 X157.349 Y127.515 E0.04174
G1 X156.570 Y128.595 E0.04174
G1 X155.755 Y129.648 E0.04174
G1 X154.905 Y130.672 E0.04174
G1 X154.021 Y131.668 E0.04174
G1 X153.103 Y132.633 E0.04174
G1 X152.154 Y133.566 E0.04174
G1 X151.174 Y134.467 E0.04174
G1 X150.164 Y135.334 E0.04174
G1 X149.125 Y136.167 E0.04174
G1 X148.058 Y136.964 E0.04174
G1 X146.966 Y137.724 E0.04174
G1 X145.848 Y138.447 E0.04174
G1 X144.706 Y139.133 E0.04174
G1 X143.542 Y139.779 E0.04174
G1 X142.357 Y140.385 E0.04174
G1 X141.152 Y140.951 E0.04174
G1 X139.929 Y141.476 E0.04174
G1 X138.688 Y141.959 E0.04174
G1 X137.432 Y142.401 E0.04174
G1 X136.162 Y142.799 E0.04174
G1 X134.879 Y143.155 E0.04174
G1 X133.585 Y143.467 E0.04174
G1 X132.281 Y143.735 E0.04174
G1 X130.968 Y143.958 E0.04174
G1 X129.649 Y144.138 E0.04174
G1 X128.325 Y144.272 E0.04174
G1 X126.996 Y144.362 E0.04174
G1 X125.666 Y144.407 E0.04174
G1 X124.334 Y144.407 E0.04174
G1 X123.004 Y144.362 E0.04174
G1 X121.675 Y144.272 E0.04174
G1 X120.351 Y144.138 E0.04174
G1 X119.032 Y143.958 E0.04174
G1 X117.719 Y143.735 E0.04174
G1 X116.415 Y143.467 E0.04174
G1 X115.121 Y143.155 E0.04174
G1 X113.838 Y142.799 E0.04174
G1 X112.568 Y142.401 E0.04174
G1 X111.312 Y141.959 E0.04174
G1 X110.071 Y141.476 E0.04174
G1 X108.848 Y140.951 E0.04174
G1 X107.643 Y140.385 E0.04174
G1 X106.458 Y139.779 E0.04174
G1 X105.294 Y139.133 E0.04174
G1 X104.152 Y138.447 E0.04174
G1 X103.034 Y137.724 E0.04174
G1 X101.942 Y136.964 E0.04174
G1 X100.875 Y136.167 E0.04174
G1 X99.836 Y135.334 E0.04174
G1 X98.827 Y134.468 E0.04171
G1 X97.750 Y133.472 E0.04598
G1 X96.897 Y132.633 E0.03753
G1 X95.979 Y131.668 E0.04174
G1 X95.095 Y130.672 E0.04174
G1 X94.245 Y129.648 E0.04174
G1 X93.431 Y128.596 E0.04171
G1 X92.577 Y127.404 E0.04598
G1 X91.909 Y126.410 E0.03753
G1 X91.205 Y125.280 E0.04174
G1 X90.540 Y124.127 E0.04174
G1 X89.913 Y122.952 E0.04174
G1 X89.327 Y121.757 E0.04174
G1 X88.782 Y120.544 E0.04171
G1 X88.230 Y119.185 E0.04598
G1 X87.815 Y118.062 E0.03753
G1 X87.395 Y116.799 E0.04174
G1 X87.018 Y115.522 E0.04174
G1 X86.684 Y114.233 E0.04174
G1 X86.394 Y112.934 E0.04174
G1 X86.148 Y111.626 E0.04171
G1 X85.931 Y110.176 E0.04598
G1 X85.789 Y108.987 E0.03753
G1 X85.677 Y107.661 E0.04174
G1 X85.610 Y106.331 E0.04174
G1 X85.587 Y105.000 E0.04174
G1 X85.610 Y103.670 E0.04171
G1 X85.688 Y102.206 E0.04598
G1 X85.789 Y101.013 E0.03753
G1 X85.946 Y99.691 E0.04174
G1 X86.148 Y98.375 E0.04174
G1 X86.394 Y97.066 E0.04174
G1 X86.684 Y95.768 E0.04171
G1 X87.056 Y94.349 E0.04598
G1 X87.395 Y93.201 E0.03753
G1 X87.815 Y91.938 E0.04174
G1 X88.277 Y90.690 E0.04171
G1 X88.836 Y89.335 E0.04598
G1 X89.327 Y88.243 E0.03753
G1 X89.913 Y87.048 E0.04174
G1 X90.540 Y85.873 E0.04174
G1 X91.205 Y84.720 E0.04174
G1 X91.909 Y83.590 E0.04174
G1 X92.651 Y82.485 E0.04174
G1 X93.430 Y81.405 E0.04174
G1 X94.245 Y80.352 E0.04174
G1 X95.048 Y79.384 E0.03944
G1 X94.758 Y79.143 F10800.000
G1 F1200
G1 X95.702 Y78.077 E0.04465
G1 X96.628 Y77.103 E0.04214
G1 X97.586 Y76.161 E0.04213
G1 X98.678 Y75.163 E0.04638
G1 X99.596 Y74.376 E0.03792
G1 X100.644 Y73.535 E0.04213
G1 X101.832 Y72.653 E0.04638
G1 X102.824 Y71.963 E0.03792
G1 X103.952 Y71.233 E0.04213
G1 X105.223 Y70.475 E0.04638
G1 X106.280 Y69.889 E0.03792
G1 X107.477 Y69.276 E0.04214
G1 X108.693 Y68.705 E0.04214
G1 X109.928 Y68.175 E0.04214
G1 X111.181 Y67.687 E0.04214
G1 X112.449 Y67.241 E0.04214
G1 X113.731 Y66.839 E0.04214
G1 X115.027 Y66.480 E0.04214
G1 X116.333 Y66.165 E0.04214
G1 X117.650 Y65.895 E0.04214
G1 X118.975 Y65.669 E0.04214
G1 X120.307 Y65.488 E0.04214
G1 X121.644 Y65.352 E0.04214
G1 X122.985 Y65.261 E0.04214
G1 X124.328 Y65.216 E0.04213
G1 X125.807 Y65.220 E0.04638
G1 X127.015 Y65.261 E0.03792
G1 X128.356 Y65.352 E0.04214
G1 X129.693 Y65.488 E0.04214
G1 X131.025 Y65.669 E0.04214
G1 X132.350 Y65.895 E0.04214
G1 X133.667 Y66.165 E0.04214
G1 X134.973 Y66.480 E0.04214
G1 X136.269 Y66.839 E0.04214
G1 X137.551 Y67.241 E0.04214
G1 X138.819 Y67.687 E0.04214
G1 X140.072 Y68.175 E0.04214
G1 X141.307 Y68.705 E0.04214
G1 X142.523 Y69.276 E0.04214
G1 X143.720 Y69.889 E0.04214
G1 X144.895 Y70.541 E0.04214
G1 X146.047 Y71.232 E0.04214
G1 X147.176 Y71.963 E0.04214
G1 X148.279 Y72.730 E0.04214
G1 X149.356 Y73.535 E0.04214
G1 X150.404 Y74.376 E0.04214
G1 X151.424 Y75.251 E0.04214
G1 X152.414 Y76.161 E0.04214
G1 X153.372 Y77.103 E0.04214
G1 X154.298 Y78.077 E0.04214
G1 X155.191 Y79.082 E0.04214
G1 X156.049 Y80.116 E0.04214
G1 X156.872 Y81.179 E0.04214
G1 X157.658 Y82.269 E0.04214
G1 X158.407 Y83.385 E0.04214
G1 X159.118 Y84.526 E0.04214
G1 X159.790 Y85.690 E0.04214
G1 X160.423 Y86.876 E0.04214
G1 X161.014 Y88.083 E0.04214
G1 X161.565 Y89.309 E0.04214
G1 X162.074 Y90.553 E0.04214
G1 X162.541 Y91.813 E0.04214
G1 X162.965 Y93.088 E0.04214
G1 X163.346 Y94.377 E0.04213
G1 X163.712 Y95.810 E0.04638
G1 X163.975 Y96.990 E0.03792
G1 X164.224 Y98.311 E0.04213
G1 X164.443 Y99.774 E0.04638
G1 X164.586 Y100.975 E0.03792
G1 X164.699 Y102.314 E0.04214
G1 X164.767 Y103.656 E0.04214
G1 X164.790 Y105.000 E0.04214
G1 X164.767 Y106.344 E0.04214
G1 X164.699 Y107.686 E0.04214
G1 X164.586 Y109.025 E0.04214
G1 X164.427 Y110.360 E0.04214
G1 X164.224 Y111.689 E0.04214
G1 X163.975 Y113.010 E0.04214
G1 X163.683 Y114.321 E0.04214
G1 X163.346 Y115.623 E0.04214
G1 X162.965 Y116.911 E0.04213
G1 X162.494 Y118.313 E0.04638
G1 X162.074 Y119.447 E0.03792
G1 X161.565 Y120.691 E0.04214
G1 X161.014 Y121.917 E0.04214
G1 X160.423 Y123.124 E0.04214
G1 X159.790 Y124.310 E0.04214
G1 X159.118 Y125.474 E0.04214
G1 X158.407 Y126.615 E0.04214
G1 X157.658 Y127.731 E0.04214
G1 X156.872 Y128.821 E0.04214
G1 X156.049 Y129.884 E0.04214
G1 X155.191 Y130.918 E0.04214
G1 X154.298 Y131.923 E0.04214
G1 X153.372 Y132.897 E0.04214
G1 X152.414 Y133.839 E0.04214
G1 X151.424 Y134.749 E0.04214
G1 X150.404 Y135.624 E0.04214
G1 X149.356 Y136.465 E0.04214
G1 X148.279 Y137.270 E0.04214
G1 X147.176 Y138.037 E0.04214
G1 X146.047 Y138.768 E0.04214
G1 X144.895 Y139.459 E0.04214
G1 X143.720 Y140.111 E0.04214
G1 X142.523 Y140.724 E0.04214
G1 X141.307 Y141.295 E0.04214
G1 X140.072 Y141.825 E0.04214
G1 X138.819 Y142.313 E0.04214
G1 X137.551 Y142.759 E0.04214
G1 X136.269 Y143.161 E0.04214
G1 X134.973 Y143.520 E0.04214
G1 X133.667 Y143.835 E0.04214
G1 X132.350 Y144.105 E0.04214
G1 X131.025 Y144.331 E0.04214
G1 X129.693 Y144.512 E0.04214
G1 X128.356 Y144.648 E0.04214
G1 X127.015 Y144.739 E0.04214
G1 X125.672 Y144.784 E0.04214
G1 X124.328 Y144.784 E0.04214
G1 X122.985 Y144.739 E0.04214
G1 X121.644 Y144.648 E0.04214
G1 X120.307 Y144.512 E0.04214
G1 X118.975 Y144.331 E0.04214
G1 X117.650 Y144.105 E0.04214
G1 X116.333 Y143.835 E0.04214
G1 X115.027 Y143.520 E0.04214
G1 X113.731 Y143.161 E0.04214
G1 X112.449 Y142.759 E0.04214
G1 X111.181 Y142.313 E0.04214
G1 X109.928 Y141.825 E0.04214
G1 X108.693 Y141.295 E0.04214
G1 X107.477 Y140.724 E0.04214
G1 X106.280 Y140.111 E0.04214
G1 X105.105 Y139.459 E0.04214
G1 X103.953 Y138.768 E0.04214
G1 X102.824 Y138.037 E0.04214
G1 X101.721 Y137.270 E0.04214
G1 X100.644 Y136.465 E0.04214
G1 X99.596 Y135.624 E0.04214
G1 X98.576 Y134.749 E0.04213
G1 X97.490 Y133.745 E0.04638
G1 X96.628 Y132.897 E0.03792
G1 X95.702 Y131.923 E0.04214
G1 X94.809 Y130.918 E0.04214
G1 X93.951 Y129.884 E0.04214
G1 X93.128 Y128.821 E0.04213
G1 X92.267 Y127.619 E0.04638
G1 X91.593 Y126.615 E0.03792
G1 X90.882 Y125.474 E0.04214
G1 X90.210 Y124.310 E0.04214
G1 X89.577 Y123.124 E0.04214
G1 X88.986 Y121.917 E0.04214
G1 X88.435 Y120.692 E0.04213
G1 X87.879 Y119.321 E0.04638
G1 X87.459 Y118.187 E0.03792
G1 X87.035 Y116.912 E0.04214
G1 X86.654 Y115.623 E0.04214
G1 X86.317 Y114.321 E0.04214
G1 X86.025 Y113.010 E0.04214
G1 X85.776 Y111.689 E0.04213
G1 X85.557 Y110.226 E0.04638
G1 X85.414 Y109.025 E0.03792
G1 X85.301 Y107.686 E0.04214
G1 X85.233 Y106.344 E0.04214
G1 X85.210 Y105.000 E0.04214
G1 X85.233 Y103.656 E0.04213
G1 X85.312 Y102.179 E0.04638
G1 X85.414 Y100.975 E0.03792
G1 X85.573 Y99.640 E0.04214
G1 X85.776 Y98.311 E0.04214
G1 X86.025 Y96.990 E0.04214
G1 X86.317 Y95.679 E0.04213
G1 X86.692 Y94.248 E0.04638
G1 X87.035 Y93.088 E0.03792
G1 X87.459 Y91.813 E0.04214
G1 X87.925 Y90.553 E0.04213
G1 X88.490 Y89.186 E0.04638
G1 X88.986 Y88.083 E0.03792
G1 X89.577 Y86.876 E0.04214
G1 X90.210 Y85.690 E0.04214
G1 X90.882 Y84.526 E0.04214
G1 X91.593 Y83.385 E0.04214
G1 X92.342 Y82.269 E0.04214
G1 X93.128 Y81.179 E0.04214
G1 X93.951 Y80.116 E0.04214
G1 X94.720 Y79.190 E0.03776
G1 X95.151 Y79.217 F10800.000
G1 F8640
G1 X95.702 Y78.077 E-0.34263
G1 X96.628 Y77.103 E-0.31035
G1 X96.958 Y76.778 E-0.10702
G1 E-0.04000 F2100.00000
G1 Z0.800 F10800.000
G1 X89.797 Y122.460
G1 Z0.200
G1 E0.80000 F2100.00000
G1 F1200
G1 X107.547 Y140.209 E0.78904
G1 F8640
G1 X105.219 Y137.881 E-0.76000
G1 E-0.04000 F2100.00000
G1 Z0.800 F10800.000
G1 X108.566 Y140.694
G1 Z0.200
G1 E0.80000 F2100.00000
G1 F1200
G1 X89.654 Y121.781 E0.84077
G1 X89.207 Y120.800 E0.03391
G1 X109.203 Y140.796 E0.88894
G1 X110.139 Y141.198 E0.03204
G1 X88.815 Y119.873 E0.94799
G1 X88.456 Y118.980 E0.03027
G1 X111.018 Y141.541 E1.00300
G1 X111.865 Y141.854 E0.02839
G1 X88.141 Y118.130 E1.05465
G1 X87.866 Y117.320 E0.02690
G1 X112.688 Y142.142 E1.10346
G1 X113.467 Y142.386 E0.02567
G1 X87.610 Y116.530 E1.14947
G1 X87.386 Y115.771 E0.02487
G1 X114.229 Y142.614 E1.19332
G1 X114.969 Y142.819 E0.02412
G1 X87.183 Y115.034 E1.23521
M73 Q2 S37
G1 X86.997 Y114.312 E0.02343
G1 X115.684 Y142.999 E1.27530
M73 P2 R37
G1 X116.388 Y143.169 E0.02278
G1 X86.836 Y113.617 E1.31374
G1 X86.683 Y112.929 E0.02217
G1 X117.065 Y143.311 E1.35066
G1 X117.738 Y143.450 E0.02160
G1 X86.557 Y112.268 E1.38618
G1 X86.433 Y111.610 E0.02106
G1 X118.384 Y143.561 E1.42040
G1 X119.028 Y143.671 E0.02055
G1 X86.337 Y110.980 E1.45331
G1 X86.243 Y110.351 E0.01999
G1 X119.649 Y143.757 E1.48509
G1 X120.268 Y143.841 E0.01963
G1 X86.163 Y109.736 E1.51614
G1 X86.091 Y109.130 E0.01921
G1 X120.867 Y143.906 E1.54600
G1 X121.462 Y143.966 E0.01881
G1 X86.035 Y108.539 E1.57494
